X:79
T:Mountain Road, The
R:reel
C:Michael Gorman (1895-1970)
D:Sharon Shannon.
Z:id:hn-reel-79
M:C|
K:D
F2AF BFAF|~F2AF EFDE|1 F2AF BFAF|G2FG EDB,D:|2 FA~A2 BAFB|ABde fdec||
|:~d3B A2FA|~d3e fgfe|1 ~d3B A2FA|GEFD EDB,D:|2 defd AFDF|GEFD EDB,D||

